X: 30094
T: Oisín And Rachael's
R: reel
M: 4/4
K: Dmajor
dA (3AAA BAGF|ABde fgec|dA (3AAA BAGF|AGFG EFAc|
dA (3AAA BAGF|ABde fgec|dA (3AAA afed|cdec d4:|
|:afda fdaf|g2Bd efed|afda fdaf|gfed BdA2|
afAa fAaf|g2fd gfdB|ABdA afed|cdec d4:|
|:ad (3ddd fdaf|g2Bd efed|ad (3ddd fdaf|gfed BdA2|
aA (3AAA fAaf|g2fd gfdB|ABdA afed|cdec d4:|

